X:1
T: The Accomplished Maid
N:
C:
S:
A:
O:
R:
M:6/8
K:G
I:speed 150
%W: A1
% voice 1 (1 lines, 20 notes)
K:G
M:6/8
L:1/16
G4 B2 B4 c2 d2 B2 d2 e2 f2 g2 G4 B2 B4 c2 d2 B2 G2 A2 F2 D2 |
%W:
% voice 1 (1 lines, 17 notes)
E4 C2 C4 G2 F4 D2 D4 c2 B c d2 B2 c2 A2 F2 G6 G6 |
%W: A2
% voice 1 (1 lines, 20 notes)
G4 B2 B4 c2 d2 B2 d2 e2 f2 g2 G4 B2 B4 c2 d2 B2 G2 A2 F2 D2 |
%W:
% voice 1 (1 lines, 17 notes)
E4 C2 C4 G2 F4 D2 D4 c2 B c d2 B2 c2 A2 F2 G6 G6 |
%W: B
% voice 1 (1 lines, 18 notes)
B4 f2 f4 g2 f4 d2 e2 ^c2 A2 d4 B2 G4 g2 f4 d2 e2 ^c2 A2 |
%W:
% voice 1 (1 lines, 17 notes)
a4 f2 g4 e2 f4 d2 e2 ^c2 A2 B2 c2 d2 e2 d2 ^c2 d6 D6 |
%W:
% voice 1 (1 lines, 21 notes)
c4 c2 c2 a2 c2 B4 B2 B2 g2 B2 A4 A2 A2 B2 c2 d2 B2 G2 A2 F2 D2 |
%W:
% voice 1 (1 lines, 17 notes)
E4 C2 C4 G2 F4 D2 D4 c2 B c d2 B2 c2 A2 F2 G6 G6 ||
